public/linkedin.svg

<svg fill="none" height="32" viewBox="0 0 32 32" width="32" xmlns="http://www.w3.org/2000/svg"><path d="m28 24.6667c0 1.8413-1.492 3.3333-3.3333 3.3333h-17.33337c-1.84066 0-3.33333-1.492-3.33333-3.3333v-17.33337c0-1.84133 1.49267-3.33333 3.33333-3.33333h17.33337c1.8413 0 3.3333 1.492 3.3333 3.33333z" fill="#949494"/><path d="m8 12.6667h3.3333v11.3333h-3.3333zm1.65667-1.3334h-.01867c-.99467 0-1.638-.7413-1.638-1.6673 0-.946.66333-1.666 1.676-1.666 1.014 0 1.6387.72 1.6573 1.666 0 .9253-.6433 1.6673-1.67663 1.6673zm14.34333 12.6667h-3.3333v-6.066c0-1.4653-.8167-2.4653-2.128-2.4653-1.0007 0-1.542.6746-1.8047 1.3266-.096.2334-.0673.8787-.0673 1.2047v6h-3.3334v-11.3333h3.3334v1.744c.4806-.744 1.2333-1.744 3.1586-1.744 2.3854 0 4.174 1.5 4.174 4.8493z" fill="#fff"/></svg>

<svg width="32" height="32" viewBox="0 0 32 32" fill="none" xmlns="http://www.w3.org/2000/svg">
<path d="M28 24.6667C28 26.508 26.508 28 24.6667 28H7.33333C5.49267 28 4 26.508 4 24.6667V7.33333C4 5.492 5.49267 4 7.33333 4H24.6667C26.508 4 28 5.492 28 7.33333V24.6667Z" fill="#949494"/>
<path d="M8 12.6667H11.3333V24H8V12.6667ZM9.65667 11.3333H9.638C8.64333 11.3333 8 10.592 8 9.666C8 8.72 8.66333 8 9.676 8C10.69 8 11.3147 8.72 11.3333 9.666C11.3333 10.5913 10.69 11.3333 9.65667 11.3333ZM24 24H20.6667V17.934C20.6667 16.4687 19.85 15.4687 18.5387 15.4687C17.538 15.4687 16.9967 16.1433 16.734 16.7953C16.638 17.0287 16.6667 17.674 16.6667 18V24H13.3333V12.6667H16.6667V14.4107C17.1473 13.6667 17.9 12.6667 19.8253 12.6667C22.2107 12.6667 23.9993 14.1667 23.9993 17.516L24 24Z" fill="white"/>
</svg>
